src/img/svg/full.svg

<svg width="14" height="11" viewBox="0 0 14 11" fill="none" xmlns="http://www.w3.org/2000/svg">
<path d="M11.982 0.205322H1.6816C1.05213 0.205322 0.537109 0.719791 0.537109 1.34859V9.35143C0.537109 9.98023 1.05213 10.4947 1.6816 10.4947H11.982C12.6115 10.4947 13.1265 9.98023 13.1265 9.35143V1.34859C13.1265 0.719791 12.6115 0.205322 11.982 0.205322ZM11.982 7.63654H1.6816V1.34859H11.982V7.63654Z" fill="white"/>
</svg>

<svg width="14" height="11" fill="none" xmlns="http://www.w3.org/2000/svg"><path d="M11.982.205h-10.3C1.052.205.537.72.537 1.35v8c0 .63.515 1.144 1.145 1.144h10.3c.63 0 1.145-.515 1.145-1.144v-8c0-.63-.516-1.144-1.145-1.144zm0 7.432h-10.3V1.349h10.3v6.288z" fill="#fff"/></svg>
